flaticon/web-design/planning.svg

<svg xmlns="http://www.w3.org/2000/svg" width="32" height="32" viewBox="0 0 24 24">
    <path d="M 23.625 2.605469 L 3.179688 2.605469 C 1.425781 2.605469 0 4.03125 0 5.785156 L 0 18.011719 C 0 18.03125 0 18.046875 0.00390625 18.066406 C 0.00390625 18.070312 0.00390625 18.078125 0.00390625 18.085938 C 0 18.128906 0 18.171875 0 18.214844 C 0 18.265625 0 18.320312 0.00390625 18.375 C 0.0078125 18.484375 0.0195312 18.589844 0.0351562 18.695312 C 0.0429688 18.75 0.0546875 18.800781 0.0664062 18.855469 C 0.105469 19.058594 0.167969 19.257812 0.25 19.453125 C 0.328125 19.640625 0.429688 19.820312 0.542969 19.992188 C 0.601562 20.074219 0.660156 20.160156 0.726562 20.238281 C 0.855469 20.394531 1 20.539062 1.15625 20.667969 C 1.234375 20.734375 1.320312 20.792969 1.402344 20.851562 C 1.929688 21.207031 2.542969 21.394531 3.179688 21.394531 L 23.625 21.394531 C 23.832031 21.394531 24 21.226562 24 21.019531 L 24 2.980469 C 24 2.773438 23.832031 2.605469 23.625 2.605469 Z M 0.75 5.785156 C 0.75 4.445312 1.839844 3.355469 3.179688 3.355469 C 4.523438 3.355469 5.613281 4.445312 5.613281 5.785156 L 5.613281 16.164062 C 5.023438 15.472656 4.148438 15.03125 3.179688 15.03125 C 2.214844 15.03125 1.339844 15.472656 0.75 16.164062 Z M 5.195312 19.570312 C 5.152344 19.636719 5.105469 19.699219 5.058594 19.757812 C 4.957031 19.878906 4.847656 19.988281 4.726562 20.089844 C 4.667969 20.136719 4.605469 20.183594 4.539062 20.226562 C 4.136719 20.5 3.667969 20.644531 3.183594 20.644531 C 2.695312 20.644531 2.226562 20.5 1.824219 20.226562 C 1.757812 20.183594 1.695312 20.136719 1.636719 20.089844 C 1.515625 19.988281 1.40625 19.878906 1.304688 19.757812 C 1.257812 19.699219 1.210938 19.636719 1.167969 19.570312 C 1.078125 19.441406 1.003906 19.304688 0.941406 19.160156 C 0.878906 19.011719 0.832031 18.859375 0.800781 18.703125 C 0.792969 18.664062 0.785156 18.625 0.78125 18.582031 C 0.765625 18.503906 0.757812 18.421875 0.753906 18.339844 C 0.753906 18.296875 0.75 18.253906 0.75 18.214844 C 0.75 18.179688 0.753906 18.148438 0.753906 18.117188 C 0.753906 18.089844 0.757812 18.066406 0.757812 18.039062 C 0.847656 16.773438 1.914062 15.78125 3.183594 15.78125 C 4.449219 15.78125 5.515625 16.773438 5.605469 18.039062 C 5.605469 18.066406 5.609375 18.089844 5.609375 18.117188 C 5.609375 18.148438 5.613281 18.179688 5.613281 18.214844 C 5.613281 18.253906 5.609375 18.296875 5.609375 18.339844 C 5.605469 18.421875 5.597656 18.503906 5.582031 18.582031 C 5.578125 18.625 5.570312 18.664062 5.5625 18.703125 C 5.53125 18.859375 5.484375 19.011719 5.421875 19.160156 C 5.359375 19.300781 5.285156 19.441406 5.195312 19.570312 Z M 23.25 20.644531 L 5.234375 20.644531 C 5.378906 20.519531 5.515625 20.382812 5.636719 20.238281 C 5.703125 20.160156 5.761719 20.074219 5.820312 19.992188 C 5.933594 19.820312 6.035156 19.640625 6.113281 19.453125 C 6.195312 19.257812 6.257812 19.058594 6.296875 18.855469 C 6.308594 18.800781 6.320312 18.75 6.328125 18.695312 C 6.34375 18.589844 6.355469 18.484375 6.359375 18.375 C 6.363281 18.324219 6.363281 18.265625 6.363281 18.214844 C 6.363281 18.171875 6.363281 18.128906 6.359375 18.085938 C 6.359375 18.078125 6.359375 18.070312 6.359375 18.066406 C 6.363281 18.046875 6.363281 18.03125 6.363281 18.011719 L 6.363281 5.789062 C 6.363281 4.8125 5.921875 3.941406 5.230469 3.355469 L 23.25 3.355469 Z M 23.25 20.644531"/>
    <path d="M3.179688 16.632812C2.3125 16.632812 1.601562 17.34375 1.601562 18.214844 1.601562 19.082031 2.3125 19.792969 3.179688 19.792969 4.050781 19.792969 4.761719 19.082031 4.761719 18.214844 4.761719 17.34375 4.050781 16.632812 3.179688 16.632812zM3.179688 19.039062C2.726562 19.039062 2.355469 18.667969 2.355469 18.214844 2.355469 17.757812 2.726562 17.386719 3.179688 17.386719 3.636719 17.386719 4.007812 17.757812 4.007812 18.214844 4.007812 18.667969 3.636719 19.039062 3.179688 19.039062zM4.382812 8.417969C4.175781 8.417969 4.007812 8.585938 4.007812 8.792969L4.007812 13.402344C4.007812 13.609375 4.175781 13.777344 4.382812 13.777344 4.589844 13.777344 4.761719 13.609375 4.761719 13.402344L4.761719 8.792969C4.761719 8.585938 4.589844 8.417969 4.382812 8.417969zM10.230469 15.304688L11.664062 13.867188C11.8125 13.722656 11.8125 13.484375 11.664062 13.335938 11.519531 13.191406 11.28125 13.191406 11.132812 13.335938L9.699219 14.773438 8.261719 13.335938C8.117188 13.191406 7.878906 13.191406 7.730469 13.335938 7.585938 13.484375 7.585938 13.722656 7.730469 13.867188L9.167969 15.304688 7.730469 16.738281C7.585938 16.886719 7.585938 17.125 7.730469 17.269531 7.804688 17.34375 7.902344 17.378906 7.996094 17.378906 8.09375 17.378906 8.191406 17.34375 8.261719 17.269531L9.699219 15.835938 11.132812 17.269531C11.207031 17.34375 11.300781 17.378906 11.398438 17.378906 11.496094 17.378906 11.589844 17.34375 11.664062 17.269531 11.8125 17.125 11.8125 16.886719 11.664062 16.738281zM11.03125 6.6875L12.464844 5.25C12.613281 5.105469 12.613281 4.867188 12.464844 4.71875 12.320312 4.574219 12.082031 4.574219 11.933594 4.71875L10.5 6.15625 9.066406 4.71875C8.917969 4.574219 8.679688 4.574219 8.535156 4.71875 8.386719 4.867188 8.386719 5.105469 8.535156 5.25L9.96875 6.6875 8.535156 8.121094C8.386719 8.269531 8.386719 8.503906 8.535156 8.652344 8.605469 8.726562 8.703125 8.761719 8.800781 8.761719 8.894531 8.761719 8.992188 8.726562 9.066406 8.652344L10.5 7.21875 11.933594 8.652344C12.007812 8.726562 12.105469 8.761719 12.199219 8.761719 12.296875 8.761719 12.394531 8.726562 12.464844 8.652344 12.613281 8.503906 12.613281 8.269531 12.464844 8.121094zM20.644531 17.308594L22.082031 15.875C22.226562 15.726562 22.226562 15.488281 22.082031 15.34375 21.933594 15.195312 21.695312 15.195312 21.550781 15.34375L20.113281 16.777344 18.679688 15.34375C18.53125 15.195312 18.292969 15.195312 18.148438 15.34375 18 15.488281 18 15.726562 18.148438 15.875L19.582031 17.308594 18.148438 18.742188C18 18.890625 18 19.128906 18.148438 19.273438 18.222656 19.347656 18.316406 19.382812 18.414062 19.382812 18.507812 19.382812 18.605469 19.347656 18.679688 19.273438L20.113281 17.839844 21.550781 19.273438C21.621094 19.347656 21.71875 19.382812 21.816406 19.382812 21.910156 19.382812 22.007812 19.347656 22.082031 19.273438 22.226562 19.128906 22.226562 18.890625 22.082031 18.742188zM20.644531 17.308594"/>
    <path d="M18.277344 12.535156L16.976562 11.234375C16.828125 11.085938 16.589844 11.085938 16.445312 11.234375L14.941406 12.738281C14.792969 12.882812 14.792969 13.121094 14.941406 13.269531 15.015625 13.339844 15.109375 13.378906 15.207031 13.378906 15.304688 13.378906 15.398438 13.339844 15.472656 13.269531L16.394531 12.34375C16.019531 15.878906 13.023438 18.640625 9.394531 18.640625 9.1875 18.640625 9.019531 18.808594 9.019531 19.015625 9.019531 19.222656 9.1875 19.390625 9.394531 19.390625 13.398438 19.390625 16.707031 16.351562 17.136719 12.457031L17.746094 13.066406C17.820312 13.140625 17.917969 13.175781 18.011719 13.175781 18.109375 13.175781 18.203125 13.140625 18.277344 13.066406 18.425781 12.921875 18.425781 12.683594 18.277344 12.535156zM17.109375 5.011719C15.742188 5.011719 14.628906 6.125 14.628906 7.492188 14.628906 8.859375 15.742188 9.972656 17.109375 9.972656 18.476562 9.972656 19.589844 8.859375 19.589844 7.492188 19.589844 6.125 18.476562 5.011719 17.109375 5.011719zM17.109375 9.21875C16.15625 9.21875 15.382812 8.445312 15.382812 7.492188 15.382812 6.539062 16.15625 5.761719 17.109375 5.761719 18.0625 5.761719 18.839844 6.539062 18.839844 7.492188 18.839844 8.445312 18.0625 9.21875 17.109375 9.21875zM17.109375 9.21875"/>
</svg>

<svg xmlns="http://www.w3.org/2000/svg" width="32" height="32" viewBox="0 0 24 24">
    <path d="M23.625 2.605H3.18A3.182 3.182 0 0 0 0 5.785v12.227c0 .02 0 .035.004.054v.02C0 18.129 0 18.172 0 18.215c0 .05 0 .105.004.16.004.11.016.215.031.32.008.055.02.106.031.16.04.204.102.403.184.598.078.188.18.367.293.54.059.081.117.167.184.245.128.157.273.301.43.43.077.066.163.125.245.184.528.355 1.141.543 1.778.543h20.445A.375.375 0 0 0 24 21.02V2.98a.375.375 0 0 0-.375-.375zM.75 5.785a2.432 2.432 0 0 1 4.863 0v10.38A3.2 3.2 0 0 0 3.18 15.03c-.965 0-1.84.442-2.43 1.133zM5.195 19.57a2.314 2.314 0 0 1-.468.52 2.314 2.314 0 0 1-.188.137 2.403 2.403 0 0 1-1.355.418c-.489 0-.957-.145-1.36-.418a2.314 2.314 0 0 1-.52-.47 2.314 2.314 0 0 1-.136-.187 2.33 2.33 0 0 1-.367-.867c-.008-.039-.016-.078-.02-.121a1.64 1.64 0 0 1-.027-.242c0-.043-.004-.086-.004-.125 0-.035.004-.067.004-.098 0-.027.004-.05.004-.078a2.44 2.44 0 0 1 2.426-2.258 2.44 2.44 0 0 1 2.421 2.258c0 .027.004.05.004.078 0 .031.004.063.004.098 0 .039-.004.082-.004.125a1.64 1.64 0 0 1-.027.242c-.004.043-.012.082-.02.121a2.376 2.376 0 0 1-.14.457c-.063.14-.137.281-.227.41zm18.055 1.075H5.234a3.59 3.59 0 0 0 .403-.407c.066-.078.125-.164.183-.246.114-.172.215-.351.293-.539.082-.195.145-.394.184-.598a2.869 2.869 0 0 0 .063-.48c.003-.05.003-.11.003-.16 0-.043 0-.086-.004-.13v-.019c.004-.02.004-.035.004-.054V5.789c0-.976-.441-1.848-1.133-2.434h18.02zm0 0"/>
    <path d="M3.18 16.633c-.868 0-1.578.71-1.578 1.582 0 .867.71 1.578 1.578 1.578.87 0 1.582-.711 1.582-1.578 0-.871-.711-1.582-1.582-1.582zm0 2.406a.827.827 0 0 1 0-1.652c.457 0 .828.37.828.828a.828.828 0 0 1-.828.824zm0 0M4.383 8.418a.375.375 0 0 0-.375.375v4.61c0 .206.168.374.375.374a.378.378 0 0 0 .379-.375V8.793a.378.378 0 0 0-.38-.375zm0 0M10.23 15.305l1.434-1.438a.373.373 0 0 0 0-.531.38.38 0 0 0-.531 0l-1.434 1.437-1.437-1.437a.38.38 0 0 0-.532 0 .38.38 0 0 0 0 .531l1.438 1.438-1.438 1.433a.38.38 0 0 0 0 .532c.075.074.172.109.266.109a.363.363 0 0 0 .266-.11l1.437-1.433 1.434 1.434a.37.37 0 0 0 .265.109.37.37 0 0 0 .266-.11.373.373 0 0 0 0-.53zm0 0M11.031 6.688l1.434-1.438a.373.373 0 0 0 0-.531.38.38 0 0 0-.531 0L10.5 6.156 9.066 4.72a.38.38 0 0 0-.53 0 .373.373 0 0 0 0 .531l1.433 1.438L8.535 8.12a.373.373 0 0 0 0 .531c.07.075.168.11.266.11a.376.376 0 0 0 .265-.11L10.5 7.22l1.434 1.433c.074.075.171.11.265.11a.363.363 0 0 0 .266-.11.373.373 0 0 0 0-.53zm0 0M20.645 17.309l1.437-1.434a.38.38 0 0 0 0-.531.373.373 0 0 0-.531 0l-1.438 1.433-1.433-1.433a.373.373 0 0 0-.532 0 .373.373 0 0 0 0 .531l1.434 1.434-1.434 1.433a.373.373 0 0 0 0 .531.376.376 0 0 0 .531 0l1.434-1.433 1.438 1.433a.376.376 0 0 0 .531 0 .38.38 0 0 0 0-.53zm0 0"/>
    <path d="M18.277 12.535l-1.3-1.3a.373.373 0 0 0-.532 0l-1.504 1.503a.373.373 0 0 0 0 .532c.075.07.168.109.266.109s.191-.04.266-.11l.922-.925c-.375 3.535-3.372 6.297-7 6.297a.375.375 0 0 0 0 .75c4.003 0 7.312-3.04 7.742-6.934l.61.61a.376.376 0 0 0 .53 0 .373.373 0 0 0 0-.532zm0 0M17.11 5.012a2.484 2.484 0 0 0-2.481 2.48 2.484 2.484 0 0 0 2.48 2.48 2.484 2.484 0 0 0 2.48-2.48 2.484 2.484 0 0 0-2.48-2.48zm0 4.207a1.727 1.727 0 0 1-1.727-1.727c0-.953.773-1.73 1.726-1.73s1.73.777 1.73 1.73a1.73 1.73 0 0 1-1.73 1.727zm0 0"/>
</svg>
